packages/astro-components-stencil/src/icons/settings-ethernet.svg

<svg width="24" height="24" viewBox="0 0 24 24" fill="none" xmlns="http://www.w3.org/2000/svg">
<path fill-rule="evenodd" clip-rule="evenodd" d="M6.99999 6.12C6.56999 5.77 5.93999 5.82 5.58999 6.25L1.34999 11.36C1.03999 11.73 1.03999 12.27 1.34999 12.64L5.58999 17.75C5.93999 18.18 6.56999 18.23 6.99999 17.88C7.42999 17.53 7.47999 16.9 7.12999 16.47L3.41999 12L7.12999 7.53C7.47999 7.1 7.42999 6.47 6.99999 6.12ZM6.99999 13H8.99999V11H6.99999V13ZM15 11H17V13H15V11ZM11 13H13V11H11V13ZM16.87 7.53C16.52 7.1 16.57 6.47 17 6.12C17.42 5.77 18.06 5.83 18.41 6.25L22.65 11.36C22.96 11.73 22.96 12.27 22.65 12.64L18.41 17.75C18.06 18.18 17.43 18.23 17 17.88C16.58 17.53 16.52 16.9 16.87 16.47L20.58 12L16.87 7.53Z" fill="black"/>
</svg>

<svg xmlns="http://www.w3.org/2000/svg" viewBox="0 0 24 24"><g xmlns="http://www.w3.org/2000/svg" id="settings-ethernet" fill-rule="nonzero">
            <path d="M7 6.12a1 1 0 00-1.41.13l-4.24 5.11c-.31.37-.31.91 0 1.28l4.24 5.11a1 1 0 001.41.13 1 1 0 00.13-1.41L3.42 12l3.71-4.47A1 1 0 007 6.12zM7 13h2v-2H7v2zm10-2h-2v2h2v-2zm-6 2h2v-2h-2v2zm6-6.88a1 1 0 00-.13 1.41L20.58 12l-3.71 4.47c-.35.43-.29 1.06.13 1.41a1 1 0 001.41-.13l4.24-5.11c.31-.37.31-.91 0-1.28l-4.24-5.11A1.01 1.01 0 0017 6.12z"/>
        </g></svg>
